X: 17
T: SCOTTISH A JULES
M: 4/4
L: 1/8
Q:1/4=60
K:C 
|GGe3/2c/2 GGe3/2c/2|G/2A/2B/2c/2G/2A/2B/2c/2 d/2^c/2d/2e/2d2|
GGe3/2=c/2 GGe3/2c/2|G/2A/2B/2c/2G/2A/2B/2c/2 dGc2|
d/2e/2d/2e/2dg egd z |c/2d/2c/2d/2c/2B/2c/2d/2 ^f/2e/2d/2c/2BG|d/2e/2d/2
e/2dg egd z |c/2d/2c/2d/2e/2d/2c/2B/2 AdG z |
.eee2 d/2e/2=f/2d/2e z |a/2g/2f/2e/2d/2e/2d/2c/2 Bec2|
